!!!OTL: Nachtigall ich hör dich singen (Band 1), S. 220
!!!id: P0853
**kern
*clefG2
*k[b-]
*F:
{8c
8d
8e
16f
=1
4.f
8a
8g
8f
=2
8g
8f}
4r
=3
{8e
8f
=4
4g
4b-
8a
8cc
=5
8b-
8a}
4r
=6
{8.cc
16b-
=7
8a
8cc
4ff
8dd
8cc
=8
4g}
4r
=9
{8c
8e
=10
4g
8b-
8dd
8cc
8cc}
=11
{4f
4g
4a
=12
8f
8dd
4cc
4a
=13
8b-
8g
4f}
==
*-
!!!minrhy: 16
!!!meters: 3/4 ]  ZZ[5
!!!cut: Nachtigall ich hör dich singen (Band 1), S. 220
!!!reg: Lothringen
!!!trd: PINCK, Louis: Verklingende Weisen, Bd 1, Metz 1928
!!!rhy1: (X_X_X_)  X__.X_X_X_  X_X_0_   (x2)
!!!rhy2: X_X_  X__X__X_X_  X_X_0_
!!!key: P0853  16  F 3/4 ]  ZZ[5
!!!mod: HEPTATONIK IONISCH]  AMBITUS[11
!!!kad: 13251
!!!akz: 12_24_32_2_114_
!!!fot: 'a__b__c__d__e__
!!!for: 'a__b__c__d__e__
!!!fok: '^a_^a_Sd_/__^__
!! PHRAS[VORWIEGEND AUFTAKTIG]
!!!fkt: Liebesleid
!! LOTH VKL
!! PR[29] 2K[6] 2G[16] 3K[0] 3G[3] 4A[3] 4Ü[0] 5A[3] 6K[0] 6G[6]
!! 7K[0] 7G[0] 8A[0] MEHR[0] SI[39] ABS[31] SR[23] SP[16]
!! ST[8] 2k[0] 2g[6] 3k[6] 3g[10] 4d[3] 4ü[0] 5d[6] 6k[0] 6g[0]
!! 7k[0] 7g[0] 8d[0] mehr[0] si[32] dm[+7] sr[6] sp[26]
!! 1F[64] 2F[33] 3F[0] 4F[0] LF[0] 2P[3] 3P[0] 4P[0] TRI[0] DF[3] AB[33]
!! TF[0] U3K[0] U3[0] U4[0] U4Ü[0] U5[6] U6K[0] U6[0] U7K[0] U7[0]
!! N1[31] N2K[0] N2[22] N3K[0] N3[16] N4[13] N4Ü[0] N5[9] N6K[0] N6[3]
!!!n7k: 0] N7[0] O1[0] O2K[0] O2[0] O3K[0] O3[0] HÖ[0
